(VECTRIC POST REVISION)
(B467C182A25E2781624BDAEC17A0D7CE)
T1
G17
G21
G90
G0Z14.510
G0X0.000Y0.000
S20000M3
G0X788.731Y124.205Z14.500
S20000M3
G0Z13.500
G1Z8.620F500.0
G1X527.858F2000.0
G1Y126.960
G1X788.731
G1Y128.460
G1X527.858
G0Z14.500
G0X524.984Y119.264
S20000M3
G0Z13.500
G1Z10.370F5000.0
G1X791.473F3000.0
G0Z14.500
G0X789.150Y39.808
S20000M3
G0Z13.500
G1Z8.620F500.0
G1X528.159F2000.0
G1Y42.808
G1X789.150
G1Y45.808
G1X528.159
G1Y48.808
G1X789.150
G1Y51.808
G1X528.159
G1Y54.808
G1X789.150
G1Y57.808
G1X528.159
G1Y60.808
G1X789.150
G1Y63.808
G1X528.159
G1Y66.808
G1X789.150
G1Y69.808
G1X528.159
G1Y72.808
G1X789.150
G1Y75.808
G1X528.159
G1Y78.808
G1X789.150
G1Y81.808
G1X528.159
G1Y84.808
G1X789.150
G1Y87.808
G1X528.159
G1Y90.808
G1X789.150
G1Y93.808
G1X528.159
G1Y96.808
G1X789.150
G1Y99.808
G1X528.159
G1Y102.808
G1X789.150
G1Y105.808
G1X528.159
G1Y108.808
G1X789.150
G1Y111.808
G1X528.159
G1Y114.322
G1X789.150
G0Z14.500
G0X536.275Y53.975
S20000M3
G0Z13.500
G1Z8.120F500.0
G3X534.200Y51.900I0.000J-2.075F3000.0
G3X536.275Y49.825I2.075J0.000
G3X538.350Y51.900I0.000J2.075
G3X536.275Y53.975I-2.075J0.000
G0Z14.500
G0X563.325
G0Z13.500
G1Z8.120F500.0
G3X561.250Y51.900I0.000J-2.075F3000.0
G3X563.325Y49.825I2.075J0.000
G3X565.400Y51.900I0.000J2.075
G3X563.325Y53.975I-2.075J0.000
G0Z14.500
G0X590.375
G0Z13.500
G1Z8.120F500.0
G3X588.300Y51.900I0.000J-2.075F3000.0
G3X590.375Y49.825I2.075J0.000
G3X592.450Y51.900I0.000J2.075
G3X590.375Y53.975I-2.075J0.000
G0Z14.500
G0X617.425
G0Z13.500
G1Z8.120F500.0
G3X615.350Y51.900I0.000J-2.075F3000.0
G3X617.425Y49.825I2.075J0.000
G3X619.500Y51.900I0.000J2.075
G3X617.425Y53.975I-2.075J0.000
G0Z14.500
G0X644.475
G0Z13.500
G1Z8.120F500.0
G3X642.400Y51.900I0.000J-2.075F3000.0
G3X644.475Y49.825I2.075J0.000
G3X646.550Y51.900I0.000J2.075
G3X644.475Y53.975I-2.075J0.000
G0Z14.500
G0X671.525
G0Z13.500
G1Z8.120F500.0
G3X669.450Y51.900I0.000J-2.075F3000.0
G3X671.525Y49.825I2.075J0.000
G3X673.600Y51.900I0.000J2.075
G3X671.525Y53.975I-2.075J0.000
G0Z14.500
G0X698.575
G0Z13.500
G1Z8.120F500.0
G3X696.500Y51.900I0.000J-2.075F3000.0
G3X698.575Y49.825I2.075J0.000
G3X700.650Y51.900I0.000J2.075
G3X698.575Y53.975I-2.075J0.000
G0Z14.500
G0X725.625
G0Z13.500
G1Z8.120F500.0
G3X723.550Y51.900I0.000J-2.075F3000.0
G3X725.625Y49.825I2.075J0.000
G3X727.700Y51.900I0.000J2.075
G3X725.625Y53.975I-2.075J0.000
G0Z14.500
G0X752.675
G0Z13.500
G1Z8.120F500.0
G3X750.600Y51.900I0.000J-2.075F3000.0
G3X752.675Y49.825I2.075J0.000
G3X754.750Y51.900I0.000J2.075
G3X752.675Y53.975I-2.075J0.000
G0Z14.500
G0X779.725
G0Z13.500
G1Z8.120F500.0
G3X777.650Y51.900I0.000J-2.075F3000.0
G3X779.725Y49.825I2.075J0.000
G3X781.800Y51.900I0.000J2.075
G3X779.725Y53.975I-2.075J0.000
G0Z14.500
G0X521.623Y1480.325
S20000M3
G0Z13.500
G1Z9.900F500.0
G1Y39.808F2000.0
G1X524.706
G1Y1480.325
G1X521.623
G0Z14.500
G0Z13.500
G1Z7.800F500.0
G1Y39.808F2000.0
G1X524.706
G1Y1480.325
G1X521.623
G0Z14.500
G0Z13.500
G1Z5.700F500.0
G1Y39.808F2000.0
G1X524.706
G1Y1480.325
G1X521.623
G0Z14.500
G0X522.750Y43.500
S20000M3
G0Z13.500
G1Z9.600F500.0
G1Y240.039F1800.0
G1Y249.214
G1Y258.389
G1Y445.754
G1Y454.929
G1Y464.104
G1Y651.468
G1Y660.643
G1Y669.818
G1Y857.182
G1Y866.357
G1Y875.532
G1Y1062.896
G1Y1072.071
G1Y1081.246
G1Y1268.611
G1Y1277.786
G1Y1286.961
G1Y1483.500
G0Z14.500
G0Y43.500
G0Z13.500
G1Z7.200F500.0
G1Y240.039F1800.0
G1Y249.214
G1Y258.389
G1Y445.754
G1Y454.929
G1Y464.104
G1Y651.468
G1Y660.643
G1Y669.818
G1Y857.182
G1Y866.357
G1Y875.532
G1Y1062.896
G1Y1072.071
G1Y1081.246
G1Y1268.611
G1Y1277.786
G1Y1286.961
G1Y1483.500
G0Z14.500
G0Y43.500
G0Z13.500
G1Z4.800F500.0
G1Y240.039F1800.0
G1Y249.214
G1Y258.389
G1Y445.754
G1Y454.929
G1Y464.104
G1Y651.468
G1Y660.643
G1Y669.818
G1Y857.182
G1Y866.357
G1Y875.532
G1Y1062.896
G1Y1072.071
G1Y1081.246
G1Y1268.611
G1Y1277.786
G1Y1286.961
G1Y1483.500
G0Z14.500
G0Y43.500
G0Z13.500
G1Z2.400F500.0
G1Y240.039F1800.0
G1Y249.214Z3.000
G1Y258.389Z2.400
G1Y445.754
G1Y454.929Z3.000
G1Y464.104Z2.400
G1Y651.468
G1Y660.643Z3.000
G1Y669.818Z2.400
G1Y857.182
G1Y866.357Z3.000
G1Y875.532Z2.400
G1Y1062.896
G1Y1072.071Z3.000
G1Y1081.246Z2.400
G1Y1268.611
G1Y1277.786Z3.000
G1Y1286.961Z2.400
G1Y1483.500
G0Z14.500
G0Y43.500
G0Z13.500
G1Z0.000F500.0
G1Y240.039F1800.0
G1Y249.214Z3.000
G1Y258.389Z0.000
G1Y445.754
G1Y454.929Z3.000
G1Y464.104Z0.000
G1Y651.468
G1Y660.643Z3.000
G1Y669.818Z0.000
G1Y857.182
G1Y866.357Z3.000
G1Y875.532Z0.000
G1Y1062.896
G1Y1072.071Z3.000
G1Y1081.246Z0.000
G1Y1268.611
G1Y1277.786Z3.000
G1Y1286.961Z0.000
G1Y1483.500
G0Z14.500
G0X522.751Y257.921
G0Z13.500
G1Z-0.500F500.0
G1Y238.171F1800.0
G0Z14.500
G0Y463.921
G0Z13.500
G1Z-0.500F500.0
G1Y444.171F1800.0
G0Z14.500
G0Y669.921
G0Z13.500
G1Z-0.500F500.0
G1Y650.171F1800.0
G0Z14.500
G0Y875.921
G0Z13.500
G1Z-0.500F500.0
G1Y856.171F1800.0
G0Z14.500
G0Y1081.921
G0Z13.500
G1Z-0.500F500.0
G1Y1062.171F1800.0
G0Z14.500
G0Y1268.171
G0Z13.500
G1Z-0.500F500.0
G1Y1287.921F1800.0
G0Z14.500
G0X547.850Y1480.325
S20000M3
G0Z13.500
G1Z9.900F500.0
G1Y39.808F2000.0
G1X551.750
G1Y1480.325
G1X547.850
G0Z14.500
G0Z13.500
G1Z7.800F500.0
G1Y39.808F2000.0
G1X551.750
G1Y1480.325
G1X547.850
G0Z14.500
G0Z13.500
G1Z5.700F500.0
G1Y39.808F2000.0
G1X551.750
G1Y1480.325
G1X547.850
G0Z14.500
G0X549.800Y43.500
S20000M3
G0Z13.500
G1Z9.600F500.0
G1Y240.039F1800.0
G1Y249.214
G1Y258.389
G1Y445.754
G1Y454.929
G1Y464.104
G1Y651.468
G1Y660.643
G1Y669.818
G1Y857.182
G1Y866.357
G1Y875.532
G1Y1062.896
G1Y1072.071
G1Y1081.246
G1Y1268.611
G1Y1277.786
G1Y1286.961
G1Y1483.500
G0Z14.500
G0Y43.500
G0Z13.500
G1Z7.200F500.0
G1Y240.039F1800.0
G1Y249.214
G1Y258.389
G1Y445.754
G1Y454.929
G1Y464.104
G1Y651.468
G1Y660.643
G1Y669.818
G1Y857.182
G1Y866.357
G1Y875.532
G1Y1062.896
G1Y1072.071
G1Y1081.246
G1Y1268.611
G1Y1277.786
G1Y1286.961
G1Y1483.500
G0Z14.500
G0Y43.500
G0Z13.500
G1Z4.800F500.0
G1Y240.039F1800.0
G1Y249.214
G1Y258.389
G1Y445.754
G1Y454.929
G1Y464.104
G1Y651.468
G1Y660.643
G1Y669.818
G1Y857.182
G1Y866.357
G1Y875.532
G1Y1062.896
G1Y1072.071
G1Y1081.246
G1Y1268.611
G1Y1277.786
G1Y1286.961
G1Y1483.500
G0Z14.500
G0Y43.500
G0Z13.500
G1Z2.400F500.0
G1Y240.039F1800.0
G1Y249.214Z3.000
G1Y258.389Z2.400
G1Y445.754
G1Y454.929Z3.000
G1Y464.104Z2.400
G1Y651.468
G1Y660.643Z3.000
G1Y669.818Z2.400
G1Y857.182
G1Y866.357Z3.000
G1Y875.532Z2.400
G1Y1062.896
G1Y1072.071Z3.000
G1Y1081.246Z2.400
G1Y1268.611
G1Y1277.786Z3.000
G1Y1286.961Z2.400
G1Y1483.500
G0Z14.500
G0Y43.500
G0Z13.500
G1Z0.000F500.0
G1Y240.039F1800.0
G1Y249.214Z3.000
G1Y258.389Z0.000
G1Y445.754
G1Y454.929Z3.000
G1Y464.104Z0.000
G1Y651.468
G1Y660.643Z3.000
G1Y669.818Z0.000
G1Y857.182
G1Y866.357Z3.000
G1Y875.532Z0.000
G1Y1062.896
G1Y1072.071Z3.000
G1Y1081.246Z0.000
G1Y1268.611
G1Y1277.786Z3.000
G1Y1286.961Z0.000
G1Y1483.500
G0Z14.500
G0X549.801Y238.171
G0Z13.500
G1Z-0.500F500.0
G1Y257.921F1800.0
G0Z14.500
G0Y444.171
G0Z13.500
G1Z-0.500F500.0
G1Y463.921F1800.0
G0Z14.500
G0Y650.171
G0Z13.500
G1Z-0.500F500.0
G1Y669.921F1800.0
G0Z14.500
G0Y856.171
G0Z13.500
G1Z-0.500F500.0
G1Y875.921F1800.0
G0Z14.500
G0Y1062.171
G0Z13.500
G1Z-0.500F500.0
G1Y1081.921F1800.0
G0Z14.500
G0Y1287.921
G0Z13.500
G1Z-0.500F500.0
G1Y1268.171F1800.0
G0Z14.500
G0X574.900Y1480.325
S20000M3
G0Z13.500
G1Z9.900F500.0
G1Y39.808F2000.0
G1X578.800
G1Y1480.325
G1X574.900
G0Z14.500
G0Z13.500
G1Z7.800F500.0
G1Y39.808F2000.0
G1X578.800
G1Y1480.325
G1X574.900
G0Z14.500
G0Z13.500
G1Z5.700F500.0
G1Y39.808F2000.0
G1X578.800
G1Y1480.325
G1X574.900
G0Z14.500
G0X576.850Y43.500
S20000M3
G0Z13.500
G1Z9.600F500.0
G1Y240.039F1800.0
G1Y249.214
G1Y258.389
G1Y445.754
G1Y454.929
G1Y464.104
G1Y651.468
G1Y660.643
G1Y669.818
G1Y857.182
G1Y866.357
G1Y875.532
G1Y1062.896
G1Y1072.071
G1Y1081.246
G1Y1268.611
G1Y1277.786
G1Y1286.961
G1Y1483.500
G0Z14.500
G0Y43.500
G0Z13.500
G1Z7.200F500.0
G1Y240.039F1800.0
G1Y249.214
G1Y258.389
G1Y445.754
G1Y454.929
G1Y464.104
G1Y651.468
G1Y660.643
G1Y669.818
G1Y857.182
G1Y866.357
G1Y875.532
G1Y1062.896
G1Y1072.071
G1Y1081.246
G1Y1268.611
G1Y1277.786
G1Y1286.961
G1Y1483.500
G0Z14.500
G0Y43.500
G0Z13.500
G1Z4.800F500.0
G1Y240.039F1800.0
G1Y249.214
G1Y258.389
G1Y445.754
G1Y454.929
G1Y464.104
G1Y651.468
G1Y660.643
G1Y669.818
G1Y857.182
G1Y866.357
G1Y875.532
G1Y1062.896
G1Y1072.071
G1Y1081.246
G1Y1268.611
G1Y1277.786
G1Y1286.961
G1Y1483.500
G0Z14.500
G0Y43.500
G0Z13.500
G1Z2.400F500.0
G1Y240.039F1800.0
G1Y249.214Z3.000
G1Y258.389Z2.400
G1Y445.754
G1Y454.929Z3.000
G1Y464.104Z2.400
G1Y651.468
G1Y660.643Z3.000
G1Y669.818Z2.400
G1Y857.182
G1Y866.357Z3.000
G1Y875.532Z2.400
G1Y1062.896
G1Y1072.071Z3.000
G1Y1081.246Z2.400
G1Y1268.611
G1Y1277.786Z3.000
G1Y1286.961Z2.400
G1Y1483.500
G0Z14.500
G0Y43.500
G0Z13.500
G1Z0.000F500.0
G1Y240.039F1800.0
G1Y249.214Z3.000
G1Y258.389Z0.000
G1Y445.754
G1Y454.929Z3.000
G1Y464.104Z0.000
G1Y651.468
G1Y660.643Z3.000
G1Y669.818Z0.000
G1Y857.182
G1Y866.357Z3.000
G1Y875.532Z0.000
G1Y1062.896
G1Y1072.071Z3.000
G1Y1081.246Z0.000
G1Y1268.611
G1Y1277.786Z3.000
G1Y1286.961Z0.000
G1Y1483.500
G0Z14.500
G0X576.851Y257.921
G0Z13.500
G1Z-0.500F500.0
G1Y238.171F1800.0
G0Z14.500
G0Y463.921
G0Z13.500
G1Z-0.500F500.0
G1Y444.171F1800.0
G0Z14.500
G0Y669.921
G0Z13.500
G1Z-0.500F500.0
G1Y650.171F1800.0
G0Z14.500
G0Y875.921
G0Z13.500
G1Z-0.500F500.0
G1Y856.171F1800.0
G0Z14.500
G0Y1081.921
G0Z13.500
G1Z-0.500F500.0
G1Y1062.171F1800.0
G0Z14.500
G0Y1268.171
G0Z13.500
G1Z-0.500F500.0
G1Y1287.921F1800.0
G0Z14.500
G0X601.950Y1480.325
S20000M3
G0Z13.500
G1Z9.900F500.0
G1Y39.808F2000.0
G1X605.850
G1Y1480.325
G1X601.950
G0Z14.500
G0Z13.500
G1Z7.800F500.0
G1Y39.808F2000.0
G1X605.850
G1Y1480.325
G1X601.950
G0Z14.500
G0Z13.500
G1Z5.700F500.0
G1Y39.808F2000.0
G1X605.850
G1Y1480.325
G1X601.950
G0Z14.500
G0X603.900Y43.500
S20000M3
G0Z13.500
G1Z9.600F500.0
G1Y240.039F1800.0
G1Y249.214
G1Y258.389
G1Y445.754
G1Y454.929
G1Y464.104
G1Y651.468
G1Y660.643
G1Y669.818
G1Y857.182
G1Y866.357
G1Y875.532
G1Y1062.896
G1Y1072.071
G1Y1081.246
G1Y1268.611
G1Y1277.786
G1Y1286.961
G1Y1483.500
G0Z14.500
G0Y43.500
G0Z13.500
G1Z7.200F500.0
G1Y240.039F1800.0
G1Y249.214
G1Y258.389
G1Y445.754
G1Y454.929
G1Y464.104
G1Y651.468
G1Y660.643
G1Y669.818
G1Y857.182
G1Y866.357
G1Y875.532
G1Y1062.896
G1Y1072.071
G1Y1081.246
G1Y1268.611
G1Y1277.786
G1Y1286.961
G1Y1483.500
G0Z14.500
G0Y43.500
G0Z13.500
G1Z4.800F500.0
G1Y240.039F1800.0
G1Y249.214
G1Y258.389
G1Y445.754
G1Y454.929
G1Y464.104
G1Y651.468
G1Y660.643
G1Y669.818
G1Y857.182
G1Y866.357
G1Y875.532
G1Y1062.896
G1Y1072.071
G1Y1081.246
G1Y1268.611
G1Y1277.786
G1Y1286.961
G1Y1483.500
G0Z14.500
G0Y43.500
G0Z13.500
G1Z2.400F500.0
G1Y240.039F1800.0
G1Y249.214Z3.000
G1Y258.389Z2.400
G1Y445.754
G1Y454.929Z3.000
G1Y464.104Z2.400
G1Y651.468
G1Y660.643Z3.000
G1Y669.818Z2.400
G1Y857.182
G1Y866.357Z3.000
G1Y875.532Z2.400
G1Y1062.896
G1Y1072.071Z3.000
G1Y1081.246Z2.400
G1Y1268.611
G1Y1277.786Z3.000
G1Y1286.961Z2.400
G1Y1483.500
G0Z14.500
G0Y43.500
G0Z13.500
G1Z0.000F500.0
G1Y240.039F1800.0
G1Y249.214Z3.000
G1Y258.389Z0.000
G1Y445.754
G1Y454.929Z3.000
G1Y464.104Z0.000
G1Y651.468
G1Y660.643Z3.000
G1Y669.818Z0.000
G1Y857.182
G1Y866.357Z3.000
G1Y875.532Z0.000
G1Y1062.896
G1Y1072.071Z3.000
G1Y1081.246Z0.000
G1Y1268.611
G1Y1277.786Z3.000
G1Y1286.961Z0.000
G1Y1483.500
G0Z14.500
G0X603.901Y238.171
G0Z13.500
G1Z-0.500F500.0
G1Y257.921F1800.0
G0Z14.500
G0Y444.171
G0Z13.500
G1Z-0.500F500.0
G1Y463.921F1800.0
G0Z14.500
G0Y650.171
G0Z13.500
G1Z-0.500F500.0
G1Y669.921F1800.0
G0Z14.500
G0Y856.171
G0Z13.500
G1Z-0.500F500.0
G1Y875.921F1800.0
G0Z14.500
G0Y1062.171
G0Z13.500
G1Z-0.500F500.0
G1Y1081.921F1800.0
G0Z14.500
G0Y1287.921
G0Z13.500
G1Z-0.500F500.0
G1Y1268.171F1800.0
G0Z14.500
G0X629.000Y1480.325
S20000M3
G0Z13.500
G1Z9.900F500.0
G1Y39.808F2000.0
G1X632.900
G1Y1480.325
G1X629.000
G0Z14.500
G0Z13.500
G1Z7.800F500.0
G1Y39.808F2000.0
G1X632.900
G1Y1480.325
G1X629.000
G0Z14.500
G0Z13.500
G1Z5.700F500.0
G1Y39.808F2000.0
G1X632.900
G1Y1480.325
G1X629.000
G0Z14.500
G0X630.950Y43.500
S20000M3
G0Z13.500
G1Z9.600F500.0
G1Y240.039F1800.0
G1Y249.214
G1Y258.389
G1Y445.754
G1Y454.929
G1Y464.104
G1Y651.468
G1Y660.643
G1Y669.818
G1Y857.182
G1Y866.357
G1Y875.532
G1Y1062.896
G1Y1072.071
G1Y1081.246
G1Y1268.611
G1Y1277.786
G1Y1286.961
G1Y1483.500
G0Z14.500
G0Y43.500
G0Z13.500
G1Z7.200F500.0
G1Y240.039F1800.0
G1Y249.214
G1Y258.389
G1Y445.754
G1Y454.929
G1Y464.104
G1Y651.468
G1Y660.643
G1Y669.818
G1Y857.182
G1Y866.357
G1Y875.532
G1Y1062.896
G1Y1072.071
G1Y1081.246
G1Y1268.611
G1Y1277.786
G1Y1286.961
G1Y1483.500
G0Z14.500
G0Y43.500
G0Z13.500
G1Z4.800F500.0
G1Y240.039F1800.0
G1Y249.214
G1Y258.389
G1Y445.754
G1Y454.929
G1Y464.104
G1Y651.468
G1Y660.643
G1Y669.818
G1Y857.182
G1Y866.357
G1Y875.532
G1Y1062.896
G1Y1072.071
G1Y1081.246
G1Y1268.611
G1Y1277.786
G1Y1286.961
G1Y1483.500
G0Z14.500
G0Y43.500
G0Z13.500
G1Z2.400F500.0
G1Y240.039F1800.0
G1Y249.214Z3.000
G1Y258.389Z2.400
G1Y445.754
G1Y454.929Z3.000
G1Y464.104Z2.400
G1Y651.468
G1Y660.643Z3.000
G1Y669.818Z2.400
G1Y857.182
G1Y866.357Z3.000
G1Y875.532Z2.400
G1Y1062.896
G1Y1072.071Z3.000
G1Y1081.246Z2.400
G1Y1268.611
G1Y1277.786Z3.000
G1Y1286.961Z2.400
G1Y1483.500
G0Z14.500
G0Y43.500
G0Z13.500
G1Z0.000F500.0
G1Y240.039F1800.0
G1Y249.214Z3.000
G1Y258.389Z0.000
G1Y445.754
G1Y454.929Z3.000
G1Y464.104Z0.000
G1Y651.468
G1Y660.643Z3.000
G1Y669.818Z0.000
G1Y857.182
G1Y866.357Z3.000
G1Y875.532Z0.000
G1Y1062.896
G1Y1072.071Z3.000
G1Y1081.246Z0.000
G1Y1268.611
G1Y1277.786Z3.000
G1Y1286.961Z0.000
G1Y1483.500
G0Z14.500
G0X630.951Y257.921
G0Z13.500
G1Z-0.500F500.0
G1Y238.171F1800.0
G0Z14.500
G0Y463.921
G0Z13.500
G1Z-0.500F500.0
G1Y444.171F1800.0
G0Z14.500
G0Y669.921
G0Z13.500
G1Z-0.500F500.0
G1Y650.171F1800.0
G0Z14.500
G0Y875.921
G0Z13.500
G1Z-0.500F500.0
G1Y856.171F1800.0
G0Z14.500
G0Y1081.921
G0Z13.500
G1Z-0.500F500.0
G1Y1062.171F1800.0
G0Z14.500
G0Y1268.171
G0Z13.500
G1Z-0.500F500.0
G1Y1287.921F1800.0
G0Z14.500
G0X656.050Y1480.325
S20000M3
G0Z13.500
G1Z9.900F500.0
G1Y39.808F2000.0
G1X659.950
G1Y1480.325
G1X656.050
G0Z14.500
G0Z13.500
G1Z7.800F500.0
G1Y39.808F2000.0
G1X659.950
G1Y1480.325
G1X656.050
G0Z14.500
G0Z13.500
G1Z5.700F500.0
G1Y39.808F2000.0
G1X659.950
G1Y1480.325
G1X656.050
G0Z14.500
G0X658.000Y43.500
S20000M3
G0Z13.500
G1Z9.600F500.0
G1Y240.039F1800.0
G1Y249.214
G1Y258.389
G1Y445.754
G1Y454.929
G1Y464.104
G1Y651.468
G1Y660.643
G1Y669.818
G1Y857.182
G1Y866.357
G1Y875.532
G1Y1062.896
G1Y1072.071
G1Y1081.246
G1Y1268.611
G1Y1277.786
G1Y1286.961
G1Y1483.500
G0Z14.500
G0Y43.500
G0Z13.500
G1Z7.200F500.0
G1Y240.039F1800.0
G1Y249.214
G1Y258.389
G1Y445.754
G1Y454.929
G1Y464.104
G1Y651.468
G1Y660.643
G1Y669.818
G1Y857.182
G1Y866.357
G1Y875.532
G1Y1062.896
G1Y1072.071
G1Y1081.246
G1Y1268.611
G1Y1277.786
G1Y1286.961
G1Y1483.500
G0Z14.500
G0Y43.500
G0Z13.500
G1Z4.800F500.0
G1Y240.039F1800.0
G1Y249.214
G1Y258.389
G1Y445.754
G1Y454.929
G1Y464.104
G1Y651.468
G1Y660.643
G1Y669.818
G1Y857.182
G1Y866.357
G1Y875.532
G1Y1062.896
G1Y1072.071
G1Y1081.246
G1Y1268.611
G1Y1277.786
G1Y1286.961
G1Y1483.500
G0Z14.500
G0Y43.500
G0Z13.500
G1Z2.400F500.0
G1Y240.039F1800.0
G1Y249.214Z3.000
G1Y258.389Z2.400
G1Y445.754
G1Y454.929Z3.000
G1Y464.104Z2.400
G1Y651.468
G1Y660.643Z3.000
G1Y669.818Z2.400
G1Y857.182
G1Y866.357Z3.000
G1Y875.532Z2.400
G1Y1062.896
G1Y1072.071Z3.000
G1Y1081.246Z2.400
G1Y1268.611
G1Y1277.786Z3.000
G1Y1286.961Z2.400
G1Y1483.500
G0Z14.500
G0Y43.500
G0Z13.500
G1Z0.000F500.0
G1Y240.039F1800.0
G1Y249.214Z3.000
G1Y258.389Z0.000
G1Y445.754
G1Y454.929Z3.000
G1Y464.104Z0.000
G1Y651.468
G1Y660.643Z3.000
G1Y669.818Z0.000
G1Y857.182
G1Y866.357Z3.000
G1Y875.532Z0.000
G1Y1062.896
G1Y1072.071Z3.000
G1Y1081.246Z0.000
G1Y1268.611
G1Y1277.786Z3.000
G1Y1286.961Z0.000
G1Y1483.500
G0Z14.500
G0X658.001Y238.171
G0Z13.500
G1Z-0.500F500.0
G1Y257.921F1800.0
G0Z14.500
G0Y444.171
G0Z13.500
G1Z-0.500F500.0
G1Y463.921F1800.0
G0Z14.500
G0Y650.171
G0Z13.500
G1Z-0.500F500.0
G1Y669.921F1800.0
G0Z14.500
G0Y856.171
G0Z13.500
G1Z-0.500F500.0
G1Y875.921F1800.0
G0Z14.500
G0Y1062.171
G0Z13.500
G1Z-0.500F500.0
G1Y1081.921F1800.0
G0Z14.500
G0Y1287.921
G0Z13.500
G1Z-0.500F500.0
G1Y1268.171F1800.0
G0Z14.500
G0X683.100Y1480.325
S20000M3
G0Z13.500
G1Z9.900F500.0
G1Y39.808F2000.0
G1X687.000
G1Y1480.325
G1X683.100
G0Z14.500
G0Z13.500
G1Z7.800F500.0
G1Y39.808F2000.0
G1X687.000
G1Y1480.325
G1X683.100
G0Z14.500
G0Z13.500
G1Z5.700F500.0
G1Y39.808F2000.0
G1X687.000
G1Y1480.325
G1X683.100
G0Z14.500
G0X685.050Y43.500
S20000M3
G0Z13.500
G1Z9.600F500.0
G1Y240.039F1800.0
G1Y249.214
G1Y258.389
G1Y445.754
G1Y454.929
G1Y464.104
G1Y651.468
G1Y660.643
G1Y669.818
G1Y857.182
G1Y866.357
G1Y875.532
G1Y1062.896
G1Y1072.071
G1Y1081.246
G1Y1268.611
G1Y1277.786
G1Y1286.961
G1Y1483.500
G0Z14.500
G0Y43.500
G0Z13.500
G1Z7.200F500.0
G1Y240.039F1800.0
G1Y249.214
G1Y258.389
G1Y445.754
G1Y454.929
G1Y464.104
G1Y651.468
G1Y660.643
G1Y669.818
G1Y857.182
G1Y866.357
G1Y875.532
G1Y1062.896
G1Y1072.071
G1Y1081.246
G1Y1268.611
G1Y1277.786
G1Y1286.961
G1Y1483.500
G0Z14.500
G0Y43.500
G0Z13.500
G1Z4.800F500.0
G1Y240.039F1800.0
G1Y249.214
G1Y258.389
G1Y445.754
G1Y454.929
G1Y464.104
G1Y651.468
G1Y660.643
G1Y669.818
G1Y857.182
G1Y866.357
G1Y875.532
G1Y1062.896
G1Y1072.071
G1Y1081.246
G1Y1268.611
G1Y1277.786
G1Y1286.961
G1Y1483.500
G0Z14.500
G0Y43.500
G0Z13.500
G1Z2.400F500.0
G1Y240.039F1800.0
G1Y249.214Z3.000
G1Y258.389Z2.400
G1Y445.754
G1Y454.929Z3.000
G1Y464.104Z2.400
G1Y651.468
G1Y660.643Z3.000
G1Y669.818Z2.400
G1Y857.182
G1Y866.357Z3.000
G1Y875.532Z2.400
G1Y1062.896
G1Y1072.071Z3.000
G1Y1081.246Z2.400
G1Y1268.611
G1Y1277.786Z3.000
G1Y1286.961Z2.400
G1Y1483.500
G0Z14.500
G0Y43.500
G0Z13.500
G1Z0.000F500.0
G1Y240.039F1800.0
G1Y249.214Z3.000
G1Y258.389Z0.000
G1Y445.754
G1Y454.929Z3.000
G1Y464.104Z0.000
G1Y651.468
G1Y660.643Z3.000
G1Y669.818Z0.000
G1Y857.182
G1Y866.357Z3.000
G1Y875.532Z0.000
G1Y1062.896
G1Y1072.071Z3.000
G1Y1081.246Z0.000
G1Y1268.611
G1Y1277.786Z3.000
G1Y1286.961Z0.000
G1Y1483.500
G0Z14.500
G0X685.051Y257.921
G0Z13.500
G1Z-0.500F500.0
G1Y238.171F1800.0
G0Z14.500
G0Y463.921
G0Z13.500
G1Z-0.500F500.0
G1Y444.171F1800.0
G0Z14.500
G0Y669.921
G0Z13.500
G1Z-0.500F500.0
G1Y650.171F1800.0
G0Z14.500
G0Y875.921
G0Z13.500
G1Z-0.500F500.0
G1Y856.171F1800.0
G0Z14.500
G0Y1081.921
G0Z13.500
G1Z-0.500F500.0
G1Y1062.171F1800.0
G0Z14.500
G0Y1268.171
G0Z13.500
G1Z-0.500F500.0
G1Y1287.921F1800.0
G0Z14.500
G0X710.150Y1480.325
S20000M3
G0Z13.500
G1Z9.900F500.0
G1Y39.808F2000.0
G1X714.050
G1Y1480.325
G1X710.150
G0Z14.500
G0Z13.500
G1Z7.800F500.0
G1Y39.808F2000.0
G1X714.050
G1Y1480.325
G1X710.150
G0Z14.500
G0Z13.500
G1Z5.700F500.0
G1Y39.808F2000.0
G1X714.050
G1Y1480.325
G1X710.150
G0Z14.500
G0X712.100Y43.500
S20000M3
G0Z13.500
G1Z9.600F500.0
G1Y240.039F1800.0
G1Y249.214
G1Y258.389
G1Y445.754
G1Y454.929
G1Y464.104
G1Y651.468
G1Y660.643
G1Y669.818
G1Y857.182
G1Y866.357
G1Y875.532
G1Y1062.896
G1Y1072.071
G1Y1081.246
G1Y1268.611
G1Y1277.786
G1Y1286.961
G1Y1483.500
G0Z14.500
G0Y43.500
G0Z13.500
G1Z7.200F500.0
G1Y240.039F1800.0
G1Y249.214
G1Y258.389
G1Y445.754
G1Y454.929
G1Y464.104
G1Y651.468
G1Y660.643
G1Y669.818
G1Y857.182
G1Y866.357
G1Y875.532
G1Y1062.896
G1Y1072.071
G1Y1081.246
G1Y1268.611
G1Y1277.786
G1Y1286.961
G1Y1483.500
G0Z14.500
G0Y43.500
G0Z13.500
G1Z4.800F500.0
G1Y240.039F1800.0
G1Y249.214
G1Y258.389
G1Y445.754
G1Y454.929
G1Y464.104
G1Y651.468
G1Y660.643
G1Y669.818
G1Y857.182
G1Y866.357
G1Y875.532
G1Y1062.896
G1Y1072.071
G1Y1081.246
G1Y1268.611
G1Y1277.786
G1Y1286.961
G1Y1483.500
G0Z14.500
G0Y43.500
G0Z13.500
G1Z2.400F500.0
G1Y240.039F1800.0
G1Y249.214Z3.000
G1Y258.389Z2.400
G1Y445.754
G1Y454.929Z3.000
G1Y464.104Z2.400
G1Y651.468
G1Y660.643Z3.000
G1Y669.818Z2.400
G1Y857.182
G1Y866.357Z3.000
G1Y875.532Z2.400
G1Y1062.896
G1Y1072.071Z3.000
G1Y1081.246Z2.400
G1Y1268.611
G1Y1277.786Z3.000
G1Y1286.961Z2.400
G1Y1483.500
G0Z14.500
G0Y43.500
G0Z13.500
G1Z0.000F500.0
G1Y240.039F1800.0
G1Y249.214Z3.000
G1Y258.389Z0.000
G1Y445.754
G1Y454.929Z3.000
G1Y464.104Z0.000
G1Y651.468
G1Y660.643Z3.000
G1Y669.818Z0.000
G1Y857.182
G1Y866.357Z3.000
G1Y875.532Z0.000
G1Y1062.896
G1Y1072.071Z3.000
G1Y1081.246Z0.000
G1Y1268.611
G1Y1277.786Z3.000
G1Y1286.961Z0.000
G1Y1483.500
G0Z14.500
G0X712.101Y238.171
G0Z13.500
G1Z-0.500F500.0
G1Y257.921F1800.0
G0Z14.500
G0Y444.171
G0Z13.500
G1Z-0.500F500.0
G1Y463.921F1800.0
G0Z14.500
G0Y650.171
G0Z13.500
G1Z-0.500F500.0
G1Y669.921F1800.0
G0Z14.500
G0Y856.171
G0Z13.500
G1Z-0.500F500.0
G1Y875.921F1800.0
G0Z14.500
G0Y1062.171
G0Z13.500
G1Z-0.500F500.0
G1Y1081.921F1800.0
G0Z14.500
G0Y1287.921
G0Z13.500
G1Z-0.500F500.0
G1Y1268.171F1800.0
G0Z14.500
G0X737.200Y1480.325
S20000M3
G0Z13.500
G1Z9.900F500.0
G1Y39.808F2000.0
G1X741.100
G1Y1480.325
G1X737.200
G0Z14.500
G0Z13.500
G1Z7.800F500.0
G1Y39.808F2000.0
G1X741.100
G1Y1480.325
G1X737.200
G0Z14.500
G0Z13.500
G1Z5.700F500.0
G1Y39.808F2000.0
G1X741.100
G1Y1480.325
G1X737.200
G0Z14.500
G0X739.150Y43.500
S20000M3
G0Z13.500
G1Z9.600F500.0
G1Y240.039F1800.0
G1Y249.214
G1Y258.389
G1Y445.754
G1Y454.929
G1Y464.104
G1Y651.468
G1Y660.643
G1Y669.818
G1Y857.182
G1Y866.357
G1Y875.532
G1Y1062.896
G1Y1072.071
G1Y1081.246
G1Y1268.611
G1Y1277.786
G1Y1286.961
G1Y1483.500
G0Z14.500
G0Y43.500
G0Z13.500
G1Z7.200F500.0
G1Y240.039F1800.0
G1Y249.214
G1Y258.389
G1Y445.754
G1Y454.929
G1Y464.104
G1Y651.468
G1Y660.643
G1Y669.818
G1Y857.182
G1Y866.357
G1Y875.532
G1Y1062.896
G1Y1072.071
G1Y1081.246
G1Y1268.611
G1Y1277.786
G1Y1286.961
G1Y1483.500
G0Z14.500
G0Y43.500
G0Z13.500
G1Z4.800F500.0
G1Y240.039F1800.0
G1Y249.214
G1Y258.389
G1Y445.754
G1Y454.929
G1Y464.104
G1Y651.468
G1Y660.643
G1Y669.818
G1Y857.182
G1Y866.357
G1Y875.532
G1Y1062.896
G1Y1072.071
G1Y1081.246
G1Y1268.611
G1Y1277.786
G1Y1286.961
G1Y1483.500
G0Z14.500
G0Y43.500
G0Z13.500
G1Z2.400F500.0
G1Y240.039F1800.0
G1Y249.214Z3.000
G1Y258.389Z2.400
G1Y445.754
G1Y454.929Z3.000
G1Y464.104Z2.400
G1Y651.468
G1Y660.643Z3.000
G1Y669.818Z2.400
G1Y857.182
G1Y866.357Z3.000
G1Y875.532Z2.400
G1Y1062.896
G1Y1072.071Z3.000
G1Y1081.246Z2.400
G1Y1268.611
G1Y1277.786Z3.000
G1Y1286.961Z2.400
G1Y1483.500
G0Z14.500
G0Y43.500
G0Z13.500
G1Z0.000F500.0
G1Y240.039F1800.0
G1Y249.214Z3.000
G1Y258.389Z0.000
G1Y445.754
G1Y454.929Z3.000
G1Y464.104Z0.000
G1Y651.468
G1Y660.643Z3.000
G1Y669.818Z0.000
G1Y857.182
G1Y866.357Z3.000
G1Y875.532Z0.000
G1Y1062.896
G1Y1072.071Z3.000
G1Y1081.246Z0.000
G1Y1268.611
G1Y1277.786Z3.000
G1Y1286.961Z0.000
G1Y1483.500
G0Z14.500
G0X739.151Y257.921
G0Z13.500
G1Z-0.500F500.0
G1Y238.171F1800.0
G0Z14.500
G0Y463.921
G0Z13.500
G1Z-0.500F500.0
G1Y444.171F1800.0
G0Z14.500
G0Y669.921
G0Z13.500
G1Z-0.500F500.0
G1Y650.171F1800.0
G0Z14.500
G0Y875.921
G0Z13.500
G1Z-0.500F500.0
G1Y856.171F1800.0
G0Z14.500
G0Y1081.921
G0Z13.500
G1Z-0.500F500.0
G1Y1062.171F1800.0
G0Z14.500
G0Y1268.171
G0Z13.500
G1Z-0.500F500.0
G1Y1287.921F1800.0
G0Z14.500
G0X764.250Y1480.325
S20000M3
G0Z13.500
G1Z9.900F500.0
G1Y39.808F2000.0
G1X768.150
G1Y1480.325
G1X764.250
G0Z14.500
G0Z13.500
G1Z7.800F500.0
G1Y39.808F2000.0
G1X768.150
G1Y1480.325
G1X764.250
G0Z14.500
G0Z13.500
G1Z5.700F500.0
G1Y39.808F2000.0
G1X768.150
G1Y1480.325
G1X764.250
G0Z14.500
G0X766.200Y43.500
S20000M3
G0Z13.500
G1Z9.600F500.0
G1Y240.039F1800.0
G1Y249.214
G1Y258.389
G1Y445.754
G1Y454.929
G1Y464.104
G1Y651.468
G1Y660.643
G1Y669.818
G1Y857.182
G1Y866.357
G1Y875.532
G1Y1062.896
G1Y1072.071
G1Y1081.246
G1Y1268.611
G1Y1277.786
G1Y1286.961
G1Y1483.500
G0Z14.500
G0Y43.500
G0Z13.500
G1Z7.200F500.0
G1Y240.039F1800.0
G1Y249.214
G1Y258.389
G1Y445.754
G1Y454.929
G1Y464.104
G1Y651.468
G1Y660.643
G1Y669.818
G1Y857.182
G1Y866.357
G1Y875.532
G1Y1062.896
G1Y1072.071
G1Y1081.246
G1Y1268.611
G1Y1277.786
G1Y1286.961
G1Y1483.500
G0Z14.500
G0Y43.500
G0Z13.500
G1Z4.800F500.0
G1Y240.039F1800.0
G1Y249.214
G1Y258.389
G1Y445.754
G1Y454.929
G1Y464.104
G1Y651.468
G1Y660.643
G1Y669.818
G1Y857.182
G1Y866.357
G1Y875.532
G1Y1062.896
G1Y1072.071
G1Y1081.246
G1Y1268.611
G1Y1277.786
G1Y1286.961
G1Y1483.500
G0Z14.500
G0Y43.500
G0Z13.500
G1Z2.400F500.0
G1Y240.039F1800.0
G1Y249.214Z3.000
G1Y258.389Z2.400
G1Y445.754
G1Y454.929Z3.000
G1Y464.104Z2.400
G1Y651.468
G1Y660.643Z3.000
G1Y669.818Z2.400
G1Y857.182
G1Y866.357Z3.000
G1Y875.532Z2.400
G1Y1062.896
G1Y1072.071Z3.000
G1Y1081.246Z2.400
G1Y1268.611
G1Y1277.786Z3.000
G1Y1286.961Z2.400
G1Y1483.500
G0Z14.500
G0Y43.500
G0Z13.500
G1Z0.000F500.0
G1Y240.039F1800.0
G1Y249.214Z3.000
G1Y258.389Z0.000
G1Y445.754
G1Y454.929Z3.000
G1Y464.104Z0.000
G1Y651.468
G1Y660.643Z3.000
G1Y669.818Z0.000
G1Y857.182
G1Y866.357Z3.000
G1Y875.532Z0.000
G1Y1062.896
G1Y1072.071Z3.000
G1Y1081.246Z0.000
G1Y1268.611
G1Y1277.786Z3.000
G1Y1286.961Z0.000
G1Y1483.500
G0Z14.500
G0X766.201Y238.171
G0Z13.500
G1Z-0.500F500.0
G1Y257.921F1800.0
G0Z14.500
G0Y444.171
G0Z13.500
G1Z-0.500F500.0
G1Y463.921F1800.0
G0Z14.500
G0Y650.171
G0Z13.500
G1Z-0.500F500.0
G1Y669.921F1800.0
G0Z14.500
G0Y856.171
G0Z13.500
G1Z-0.500F500.0
G1Y875.921F1800.0
G0Z14.500
G0Y1062.171
G0Z13.500
G1Z-0.500F500.0
G1Y1081.921F1800.0
G0Z14.500
G0Y1287.921
G0Z13.500
G1Z-0.500F500.0
G1Y1268.171F1800.0
G0Z14.500
G0X791.300Y1480.325
S20000M3
G0Z13.500
G1Z9.900F500.0
G1Y39.808F2000.0
G1X794.425
G1Y1480.325
G1X791.300
G0Z14.500
G0Z13.500
G1Z7.800F500.0
G1Y39.808F2000.0
G1X794.425
G1Y1480.325
G1X791.300
G0Z14.500
G0Z13.500
G1Z5.700F500.0
G1Y39.808F2000.0
G1X794.425
G1Y1480.325
G1X791.300
G0Z14.500
G0X793.250Y1483.500
S20000M3
G0Z13.500
G1Z9.600F500.0
G1Y1286.961F1800.0
G1Y1277.786
G1Y1268.611
G1Y1081.246
G1Y1072.071
G1Y1062.896
G1Y875.532
G1Y866.357
G1Y857.182
G1Y669.818
G1Y660.643
G1Y651.468
G1Y464.104
G1Y454.929
G1Y445.754
G1Y258.389
G1Y249.214
G1Y240.039
G1Y43.500
G0Z14.500
G0Y1483.500
G0Z13.500
G1Z7.200F500.0
G1Y1286.961F1800.0
G1Y1277.786
G1Y1268.611
G1Y1081.246
G1Y1072.071
G1Y1062.896
G1Y875.532
G1Y866.357
G1Y857.182
G1Y669.818
G1Y660.643
G1Y651.468
G1Y464.104
G1Y454.929
G1Y445.754
G1Y258.389
G1Y249.214
G1Y240.039
G1Y43.500
G0Z14.500
G0Y1483.500
G0Z13.500
G1Z4.800F500.0
G1Y1286.961F1800.0
G1Y1277.786
G1Y1268.611
G1Y1081.246
G1Y1072.071
G1Y1062.896
G1Y875.532
G1Y866.357
G1Y857.182
G1Y669.818
G1Y660.643
G1Y651.468
G1Y464.104
G1Y454.929
G1Y445.754
G1Y258.389
G1Y249.214
G1Y240.039
G1Y43.500
G0Z14.500
G0Y1483.500
G0Z13.500
G1Z2.400F500.0
G1Y1286.961F1800.0
G1Y1277.786Z3.000
G1Y1268.611Z2.400
G1Y1081.246
G1Y1072.071Z3.000
G1Y1062.896Z2.400
G1Y875.532
G1Y866.357Z3.000
G1Y857.182Z2.400
G1Y669.818
G1Y660.643Z3.000
G1Y651.468Z2.400
G1Y464.104
G1Y454.929Z3.000
G1Y445.754Z2.400
G1Y258.389
G1Y249.214Z3.000
G1Y240.039Z2.400
G1Y43.500
G0Z14.500
G0Y1483.500
G0Z13.500
G1Z0.000F500.0
G1Y1286.961F1800.0
G1Y1277.786Z3.000
G1Y1268.611Z0.000
G1Y1081.246
G1Y1072.071Z3.000
G1Y1062.896Z0.000
G1Y875.532
G1Y866.357Z3.000
G1Y857.182Z0.000
G1Y669.818
G1Y660.643Z3.000
G1Y651.468Z0.000
G1Y464.104
G1Y454.929Z3.000
G1Y445.754Z0.000
G1Y258.389
G1Y249.214Z3.000
G1Y240.039Z0.000
G1Y43.500
G0Z14.500
G0X793.251Y257.921
G0Z13.500
G1Z-0.500F500.0
G1Y238.171F1800.0
G0Z14.500
G0Y463.921
G0Z13.500
G1Z-0.500F500.0
G1Y444.171F1800.0
G0Z14.500
G0Y669.921
G0Z13.500
G1Z-0.500F500.0
G1Y650.171F1800.0
G0Z14.500
G0Y875.921
G0Z13.500
G1Z-0.500F500.0
G1Y856.171F1800.0
G0Z14.500
G0Y1081.921
G0Z13.500
G1Z-0.500F500.0
G1Y1062.171F1800.0
G0Z14.500
G0Y1268.171
G0Z13.500
G1Z-0.500F500.0
G1Y1287.921F1800.0
G0Z14.500
M5
G0Z14.510
G0X0.000Y0.000
M2
